X: 30
T: No_128_A_Song_of_Spring.krn
%%abc-version 2.0
%%abcx-abcm2ps-target-version 5.9.1 (29 Sep 2008)
%%abc-creator hum2abc beta
%%abcx-conversion-date 2020/08/10 18:54:57
%%gracespace 0 6 6
%%humdrum-veritas 1292257204
%%humdrum-veritas-data 2679521363
%%linebreak <none>
%%barnumbers 0
L: 1/8
M: 3/4
%%staves {1 2}
V: 1 clef=bass
V: 2 clef=bass
K: A
[V:1] [K:clef=bass][M:3/4]C>B, B,>C C3/A,/ ||  
[V:2] [K:clef=bass][M:3/4]G,,G,, G,,G,, G,,G,, ||  
[V:1] [M:2/4]C4 | 
[V:2] [M:2/4]z4 | 
[V:1] A,<A,A,2 ||  
[V:2] z4 ||  
[V:1] [M:3/4]C>C C>C C3/A,/ ||  
[V:2] [M:3/4]z6 ||  
[V:1] [M:2/4]A,4 | 
[V:2] [M:2/4]z4 | 
[V:1] F,<F,F,2 ||  
[V:2] z4 ||  
[V:1] [M:3/4]C>A, A,>C A,3/F,/ ||  
[V:2] [M:3/4]z6 ||  
[V:1] [M:2/4]F,4 | 
[V:2] [M:2/4]z4 | 
[V:1] E,<E,E,2 ||  
[V:2] z4 ||  
[V:1] [M:3/4]F,>F, F,>E, E,3/C,/ ||  
[V:2] [M:3/4]z6 ||  
[V:1] [M:2/4]C,3B,, | 
[V:2] [M:2/4]z4 | 
[V:1] A,,<A,,A,,2 | 
[V:2] z4 | 
[V:1] C,>C, C,3/E,/ | 
[V:2] z4 | 
[V:1] E,C,/E,< C,B,,/ | 
[V:2] z4 | 
[V:1] A,,3A,, | 
[V:2] z4 | 
[V:1] A,,4 ||  
[V:2] z4 ||  
[V:1] [M:3/4]F,>F, F,>A, A,3/F,/ ||  
[V:2] [M:3/4]z6 ||  
[V:1] [M:2/4]A,4 | 
[V:2] [M:2/4]z4 | 
[V:1] F,F,F,2 | 
[V:2] z4 | 
[V:1] [M:3/4]C>A, A,>A, A,3/F,/ ||  
[V:2] [M:3/4]z6 ||  
[V:1] [M:2/4]F,4 | 
[V:2] [M:2/4]z4 | 
[V:1] E,E,E,2 ||  
[V:2] z4 ||  
[V:1] [M:3/4]F,>F, F,>E, E,3/C,/ ||  
[V:2] [M:3/4]z6 ||  
[V:1] [M:2/4]C,3B,, | 
[V:2] [M:2/4]z4 | 
[V:1] A,,A,,A,,2 | 
[V:2] z4 | 
[V:1] C,>C, C,3/E,/ | 
[V:2] z4 | 
[V:1] (3E,C,E, C,3/B,,/ | 
[V:2] z4 | 
[V:1] A,,3A,, | 
[V:2] z4 | 
[V:1] A,,4 |]  
[V:2] z4 |]  


